X:1
T:Laudate Dominum - Pitoni
T:#
%%score [ 1 2 3 4 ]
L:1/8
Q:1/4=480
M:3/1
K:F
V:1 treble nm="Soprano" snm="S"
V:2 treble nm="Alto" snm="A"
V:3 treble-8 nm="Tenor" snm="T"
V:4 bass nm="Bass" snm="B"
V:1
"^Psalm 150""^Giuseppe Ottavio Pitoni\n(1657-1743)""^Laudate Dominum" G8 G8 ^F8 | G12 G4 G8 | %2
w: Lau- da- te|Do- mi- num,|
 G8 G8 A8 | B12 B4 B8 | B8 B8 A8 | B16 B8 | z8 z8 B8 |[M:3/1] B8 B8 A8 | B16 B8 | A16 A8 | %10
w: lau- da- te|Do- mi- num|in san- ctis|e- ius:|lau-|da- te, lau-|da- te|e- um|
 A8 A8 A8 | G8 G8 G8 | G16 ^F8 | G16 G8 || %14
w: in fir- ma-|men- to vir-|tu- tis|e- ius.|
[M:4/4][Q:1/4=120][Q:1/4=120][Q:1/4=120][Q:1/4=120] z2 G2 G2 G2 | A2 A2 B2 B2 | B2 BB (B2 A2) | %17
w: Lau- da- te|e- um in vir-|tu- ti- bus e\- *|
 B4 z2 B2 | G2 B2 d4 | d3 G ^F2 F2 |[M:4/4] G2 A2 B3 B | A2 AA B2 AA | A4 A4 | z2 B2 (B2 A2) | %24
w: ius: lau-|da- te e-|um se- cun- dum|mul- ti- tu- di-|nem mag- ni- tu- di- nis|e- ius.|Lau- da\- *|
 B2 A2 B2 B2 | (B2 G2) A2 A2 | B6 B2 | B4 B2 B2 | B6 B2 | B8 | B8 | z2 B2 B2 B2 | A2 A2 c2 c2 | %33
w: te, lau- da- te|e\- * um in|so- no|tu- bae, in|so- no|tu|bae:|lau- da- te|e- um in psal-|
 =B3 B c2 c2 | c3 =B c4 | z2 G2 ^FF (G2- | G2 ^F2) G2 G2 | G2 GG A2 AA | A3 A A4 | z4 B2 B2 | %40
w: te- ri- o et|ci- tha- ra.|Lau- da- te e\-|* * um in|cym- ba- lis be- ne- so-|nan- ti- bus:|o- mnis|
 B3 B B4 | B2 F2 G4- | G4 ^F4 | G8 || %44
w: spi- ri- tus|lau- det Do\-|* mi-|num.|
[M:3/1][Q:1/4=480][Q:1/4=480][Q:1/4=480][Q:1/4=480] z8 =B12 B4 | =B12 B4 c4 c4 | =B16 B8 | %47
w: Al- le-|lu- ia, al- le-|lu- ia,|
 z8 A12 A4 | A12 A4 B4 B4 |[M:3/1] A16 A8 | z8[Q:1/4=472] B12[Q:1/4=463] B4 | %51
w: al- le-|lu- ia, al- le-|lu- ia,|al- le-|
[Q:1/4=453] G12[Q:1/4=444] G4[Q:1/4=440] B4[Q:1/4=435] B4 |[Q:1/4=420] A24 | %53
w: lu- ia, al- le-|lu-|
[Q:1/4=300] !fermata!=B24 |] %54
w: ia.|
V:2
 D8 D8 D8 | D12 D4 D8 | D8 D8 F8 | F12 F4 F8 | G8 F8 F8 | F16 F8 | z8 z8 F8 |[M:3/1] F8 F8 F8 | %8
w: Lau- da- te|Do- mi- num,|lau- da- te|Do- mi- num|in san- ctis|e- ius:|lau-|da- te, lau-|
 F16 E8 | F16 F8 | F8 F8 F8 | D8 D8 D8 | _E16 D8 | D16 D8 ||[M:4/4] z2 D2 D2 D2 | F2 F2 F2 F2 | %16
w: da- te|e- um|in fir- ma-|men- to vir-|tu- tis|e- ius.|Lau- da- te|e- um in vir-|
 G2 GG _E4 | D4 z2 F2 | EF (G4 ^F2) | G2 D2 D2 D2 |[M:4/4] D2 F2 F3 F | F2 FF D2 FF | E4 ^F4 | %23
w: tu- ti- bus e-|ius: lau-|da- te e\- *|um se- cun- dum|mul- ti- tu- di-|nem mag- ni- tu- di- nis|e- ius.|
 z2 =F2 F4 | F2 F2 F2 F2 | (F2 E2) F2 F2 | (F_EDE F2) G2 | F4 F2 G2 | (F_EDE F2) G2 | F8 | G8 | %31
w: Lau- da-|te, lau- da- te|e\- * um in|so\- * * * * no|tu- bae, in|so\- * * * * no|tu-|bae:|
 z2 G2 G2 G2 | F2 F2 G2 G2 | G3 G G2 G2 | G3 G G4 | z2 _E2 D2 D2 | D4 D2 D2 | D2 DD F2 FF | %38
w: lau- da- te|e- um in psal-|te- ri- o et|ci- tha- ra.|Lau- da- te|e- um in|cym- ba- lis be- ne- so-|
 E3 E ^F4 | z4 !courtesy!=F2 F2 | F3 F F4 | F2 D2 D4- | D4 D4 | D8 ||[M:3/1] z8 G12 G4 | %45
w: nan- ti- bus:|o- mnis|spi- ri- tus|lau- det Do\-|* mi-|num.|Al- le-|
 G12 G4 G4 G4 | G16 G8 | z8 ^F12 F4 | ^F12 F4 G4 G4 |[M:3/1] ^F16 F8 | z8 G12 !courtesy!=F4 | %51
w: lu- ia, al- le-|lu- ia,|al- le-|lu- ia, al- le-|lu- ia,|al- le-|
 E12 E4 G4 G4 | (G16 ^F8) | !fermata!G24 |] %54
w: lu- ia, al- le-|lu\- *|ia.|
V:3
 B8 B8 A8 | B12 B4 B8 | B8 B8 c8 | d12 d4 d8 | _e8 c8 c8 | d16 d8 | z8 z8 d8 | %7
w: Lau- da- te|Do- mi- num,|lau- da- te|Do- mi- num|in san- ctis|e- ius:|lau-|
[M:3/1][K:treble-8] d8 d8 c8 | d16 B8 | c16 c8 | c8 c8 c8 | =B8 B8 B8 | c16 A8 | =B16 B8 || %14
w: da- te, lau-|da- te|e- um|in fir- ma-|men- to vir-|tu- tis|e- ius.|
[M:4/4][K:treble-8] z2 _B2 B2 B2 | c2 c2 d2 d2 | B2 BB c4 | F4 z2 d2 | c2 B2 A4 | B2 B2 A2 A2 | %20
w: Lau- da- te|e- um in vir-|tu- ti- bus e-|ius: lau-|da- te e-|um se- cun- dum|
[M:4/4][K:treble-8] B2 c2 d3 d | c2 cc B2 dd | (d2 ^c2) d4 | z2 d2 =c4 | d2 c2 d2 d2 | B4 c2 c2 | %26
w: mul- ti- tu- di-|nem mag- ni- tu- di- nis|e\- * ius.|Lau- da-|te, lau- da- te|e- um in|
 (dcBc d2) _e2 | d4 d2 _e2 | (dcBc d2) _e2 | (_e2 dc d4) | _e8 | z2 _e2 e2 e2 | c2 c2 _e2 e2 | %33
w: so\- * * * * no|tu- bae, in|so\- * * * * no|tu\- * * *|bae:|lau- da- te|e- um in psal-|
 d3 d _e2 e2 | d3 d c4 | z2 c2 A2 B2 | A4 B2 B2 | B2 BB c2 dd | d3 ^c d4 | z4 d2 d2 | d3 d d4 | %41
w: te- ri- o et|ci- tha- ra.|Lau- da- te|e- um in|cym- ba- lis be- ne- so-|nan- ti- bus:|o- mnis|spi- ri- tus|
 d4 B4 | A6 A2 | =B8 ||[M:3/1][K:treble-8] z8 d12 d4 | d12 d4 _e4 e4 | d16 d8 | z8 d12 d4 | %48
w: lau- det|Do- mi-|num.|Al- le-|lu- ia, al- le-|lu- ia,|al- le-|
 d12 d4 d4 d4 |[M:3/1][K:treble-8] d16 d8 | z8 d12 d4 | c12 c4 B4 B4 | d24 | !fermata!d24 |] %54
w: lu- ia, al- le-|lu- ia,|al- le-|lu- ia, al- le-|lu-|ia.|
V:4
 G,8 G,8 D,8 | G,12 G,4 G,8 | G,8 G,8 F,8 | B,12 B,4 B,8 | _E,8 F,8 F,8 | B,,16 B,,8 | z8 z8 B,8 | %7
w: Lau- da- te|Do- mi- num,|lau- da- te|Do- mi- num|in san- ctis|e- ius:|lau-|
[M:3/1] B,8 B,8 F,8 | B,16 G,8 | F,16 F,8 | F,8 F,8 F,8 | G,8 G,8 G,8 | C,16 D,8 | G,,16 G,,8 || %14
w: da- te, lau-|da- te|e- um|in fir- ma-|men- to vir-|tu- tis|e- ius.|
[M:4/4] z2 G,2 G,2 G,2 | F,2 F,2 D,2 D,2 | _E,2 E,E, C,4 | B,,4 z2 B,,2 | C,2 G,,2 D,4 | %19
w: Lau- da- te|e- um in vir-|tu- ti- bus e-|ius: lau-|da- te e-|
 G,,2 G,2 D,2 D,2 |[M:4/4] G,2 F,2 B,3 B, | F,2 F,F, G,2 D,D, | A,4 D,4 | z2 B,,2 F,4 | %24
w: um se- cun- dum|mul- ti- tu- di-|nem mag- ni- tu- di- nis|e- ius.|Lau- da-|
 B,,2 F,2 B,2 A,2 | G,4 F,2 F,2 | B,6 _E,2 | B,4 B,2 _E,2 | B,6 _E,2 | B,8 | _E,8 | %31
w: te, lau- da- te|e- um in|so- no|tu- bae, in|so- no|tu-|bae:|
 z2 _E,2 E,2 E,2 | F,2 F,2 C,2 C,2 | G,3 G, _E,2 C,2 | G,3 G, C,4 | z2 C,2 D,2 G,,2 | %36
w: lau- da- te|e- um in psal-|te- ri- o et|ci- tha- ra.|Lau- da- te|
 D,4 G,,2 G,2 | G,2 G,G, F,2 D,D, | A,3 A, D,4 | z4 B,,2 B,,2 | B,,3 B,, B,,4 | B,,4 G,,4 | %42
w: e- um in|cym- ba- lis be- ne- so-|nan- ti- bus:|o- mnis|spi- ri- tus|lau- det|
 D,6 D,2 | G,,8 ||[M:3/1] z8 G,12 G,4 | G,12 G,4 C,4 C,4 | G,16 G,8 | z8 D,12 D,4 | %48
w: Do- mi-|num.|Al- le-|lu- ia, al- le-|lu- ia,|al- le-|
 D,12 D,4 G,,4 G,,4 |[M:3/1] D,16 D,8 | z8 B,,12 B,,4 | C,12 C,4 G,,4 G,,4 | D,24 | %53
w: lu- ia, al- le-|lu- ia,|al- le-|lu- ia, al- le-|lu-|
 !fermata!G,,24 |] %54
w: ia.|

